X:181
T:Deuks Dang o'er My Daddie, The
R:Country Dance
B:The Athole Collection
M:6/8
L:1/8
K:D
f/e/|d2A F2D|EFE BAB|d2A F2E|FDD D2 f/e/|d2A F2D|
EFE BAB|d2A F2E|FDD D2:|
|:A|dcd Bcd|efd cBA|dcd efg|fdd d2 e/f/|gfg Bcd|efd cBA|
d2A F2E|FDD D2:|

